about/src/icon-instagram.svg

<svg clip-rule="evenodd" fill-rule="evenodd" stroke-linejoin="round" stroke-miterlimit="2" viewBox="0 0 100 100" xmlns="http://www.w3.org/2000/svg"><path d="m0 0h100v100h-100z" fill="none"/><path d="m500 3.5c-12.266 0-13.804.053-18.622.272-4.999.229-8.411 1.031-11.398 2.192-3.152 1.225-5.824 2.864-8.488 5.528s-4.303 5.337-5.528 8.488c-1.161 2.987-1.964 6.399-2.192 11.398-.22 4.818-.272 6.356-.272 18.622s.052 13.804.272 18.622c.228 4.999 1.031 8.411 2.192 11.398 1.225 3.151 2.864 5.824 5.528 8.488s5.336 4.303 8.488 5.528c2.987 1.161 6.399 1.964 11.398 2.192 4.818.219 6.356.272 18.622.272s13.804-.053 18.622-.272c4.999-.228 8.411-1.031 11.398-2.192 3.151-1.225 5.824-2.864 8.488-5.528s4.303-5.337 5.528-8.488c1.161-2.987 1.964-6.399 2.192-11.398.219-4.818.272-6.356.272-18.622s-.053-13.804-.272-18.622c-.228-4.999-1.031-8.411-2.192-11.398-1.225-3.151-2.864-5.824-5.528-8.488s-5.337-4.303-8.488-5.528c-2.987-1.161-6.399-1.963-11.398-2.192-4.818-.219-6.356-.272-18.622-.272zm0 11.108c11.97 0 13.388.045 18.115.261 4.137.189 6.386.868 7.881 1.449 1.891.735 3.24 1.612 4.657 3.029s2.294 2.767 3.029 4.657c.581 1.495 1.26 3.744 1.449 7.88.216 4.728.261 6.146.261 18.116s-.045 13.388-.261 18.115c-.189 4.137-.868 6.386-1.449 7.881-.735 1.891-1.612 3.24-3.029 4.657s-2.766 2.294-4.657 3.029c-1.495.581-3.744 1.26-7.88 1.449-4.727.216-6.145.261-18.116.261s-13.389-.045-18.115-.261c-4.137-.189-6.386-.868-7.881-1.449-1.891-.735-3.24-1.612-4.657-3.029s-2.294-2.766-3.029-4.657c-.581-1.495-1.26-3.744-1.449-7.881-.216-4.727-.261-6.145-.261-18.115s.045-13.388.261-18.115c.189-4.137.868-6.386 1.449-7.881.735-1.891 1.612-3.24 3.029-4.657s2.766-2.294 4.657-3.029c1.495-.581 3.744-1.26 7.881-1.449 4.727-.216 6.145-.261 18.115-.261zm0 10.784c-13.591 0-24.608 11.017-24.608 24.608s11.017 24.608 24.608 24.608 24.608-11.017 24.608-24.608-11.017-24.608-24.608-24.608zm0 38.108c-7.456 0-13.5-6.044-13.5-13.5s6.044-13.5 13.5-13.5 13.5 6.044 13.5 13.5-6.044 13.5-13.5 13.5zm30.921-37.521c0-3.811-3.089-6.9-6.9-6.9s-6.9 3.089-6.9 6.9 3.089 6.9 6.9 6.9 6.9-3.089 6.9-6.9z" fill-rule="nonzero" transform="translate(-450)"/></svg>

<?xml version="1.0" encoding="UTF-8" standalone="no"?>
<!DOCTYPE svg PUBLIC "-//W3C//DTD SVG 1.1//EN" "http://www.w3.org/Graphics/SVG/1.1/DTD/svg11.dtd">
<svg width="100%" height="100%" viewBox="0 0 100 100" version="1.1" xmlns="http://www.w3.org/2000/svg" xmlns:xlink="http://www.w3.org/1999/xlink" xml:space="preserve" xmlns:serif="http://www.serif.com/" style="fill-rule:evenodd;clip-rule:evenodd;stroke-linejoin:round;stroke-miterlimit:2;">
    <g transform="matrix(1,0,0,1,-450,0)">
        <rect id="icon-instagram" x="450" y="0" width="100" height="100" style="fill:none;"/>
        <g id="icon-instagram1" serif:id="icon-instagram">
            <path d="M500,3.5C487.734,3.5 486.196,3.553 481.378,3.772C476.379,4.001 472.967,4.803 469.98,5.964C466.828,7.189 464.156,8.828 461.492,11.492C458.828,14.156 457.189,16.829 455.964,19.98C454.803,22.967 454,26.379 453.772,31.378C453.552,36.196 453.5,37.734 453.5,50C453.5,62.266 453.552,63.804 453.772,68.622C454,73.621 454.803,77.033 455.964,80.02C457.189,83.171 458.828,85.844 461.492,88.508C464.156,91.172 466.828,92.811 469.98,94.036C472.967,95.197 476.379,96 481.378,96.228C486.196,96.447 487.734,96.5 500,96.5C512.266,96.5 513.804,96.447 518.622,96.228C523.621,96 527.033,95.197 530.02,94.036C533.171,92.811 535.844,91.172 538.508,88.508C541.172,85.844 542.811,83.171 544.036,80.02C545.197,77.033 546,73.621 546.228,68.622C546.447,63.804 546.5,62.266 546.5,50C546.5,37.734 546.447,36.196 546.228,31.378C546,26.379 545.197,22.967 544.036,19.98C542.811,16.829 541.172,14.156 538.508,11.492C535.844,8.828 533.171,7.189 530.02,5.964C527.033,4.803 523.621,4.001 518.622,3.772C513.804,3.553 512.266,3.5 500,3.5ZM500,14.608C511.97,14.608 513.388,14.653 518.115,14.869C522.252,15.058 524.501,15.737 525.996,16.318C527.887,17.053 529.236,17.93 530.653,19.347C532.07,20.764 532.947,22.114 533.682,24.004C534.263,25.499 534.942,27.748 535.131,31.884C535.347,36.612 535.392,38.03 535.392,50C535.392,61.97 535.347,63.388 535.131,68.115C534.942,72.252 534.263,74.501 533.682,75.996C532.947,77.887 532.07,79.236 530.653,80.653C529.236,82.07 527.887,82.947 525.996,83.682C524.501,84.263 522.252,84.942 518.116,85.131C513.389,85.347 511.971,85.392 500,85.392C488.029,85.392 486.611,85.347 481.885,85.131C477.748,84.942 475.499,84.263 474.004,83.682C472.113,82.947 470.764,82.07 469.347,80.653C467.93,79.236 467.053,77.887 466.318,75.996C465.737,74.501 465.058,72.252 464.869,68.115C464.653,63.388 464.608,61.97 464.608,50C464.608,38.03 464.653,36.612 464.869,31.885C465.058,27.748 465.737,25.499 466.318,24.004C467.053,22.113 467.93,20.764 469.347,19.347C470.764,17.93 472.113,17.053 474.004,16.318C475.499,15.737 477.748,15.058 481.885,14.869C486.612,14.653 488.03,14.608 500,14.608ZM500,25.392C486.409,25.392 475.392,36.409 475.392,50C475.392,63.591 486.409,74.608 500,74.608C513.591,74.608 524.608,63.591 524.608,50C524.608,36.409 513.591,25.392 500,25.392ZM500,63.5C492.544,63.5 486.5,57.456 486.5,50C486.5,42.544 492.544,36.5 500,36.5C507.456,36.5 513.5,42.544 513.5,50C513.5,57.456 507.456,63.5 500,63.5ZM530.921,25.979C530.921,22.168 527.832,19.079 524.021,19.079C520.21,19.079 517.121,22.168 517.121,25.979C517.121,29.79 520.21,32.879 524.021,32.879C527.832,32.879 530.921,29.79 530.921,25.979Z" style="fill-rule:nonzero;"/>
        </g>
    </g>
</svg>
